assets/svg/wallet_icon_profile_emptyreplies.svg

<svg width="48" height="48" viewBox="0 0 48 48" fill="none" xmlns="http://www.w3.org/2000/svg">
<path d="M24.0612 4.83188H17.1715C16.6071 4.83188 16.1056 4.47094 15.9265 3.93469L15.1146 1.5H26.119L25.3071 3.93469C25.2197 4.19597 25.0524 4.42317 24.8288 4.58417C24.6053 4.74517 24.3367 4.83182 24.0612 4.83188ZM30.215 40.8612V42.3122C30.215 43.7184 29.075 44.8584 27.6687 44.8584H16.4131C15.5075 44.8584 14.7725 45.5934 14.7725 46.4991H27.6687C29.9815 46.4991 31.8556 44.6241 31.8556 42.3122V41.5128L30.215 40.8612Z" fill="#E1EAF8"/>
<path d="M27.6695 46.828H13.5648C11.0748 46.828 9.0498 44.8021 9.0498 42.313V37.0743C9.0498 36.8934 9.19699 36.7462 9.37793 36.7462C9.55887 36.7462 9.70605 36.8934 9.70605 37.0743V42.313C9.70605 44.4412 11.4376 46.1718 13.5648 46.1718H27.6695C29.7976 46.1718 31.5282 44.4402 31.5282 42.313V32.5137C31.5282 32.3327 31.6754 32.1855 31.8564 32.1855C32.0373 32.1855 32.1845 32.3327 32.1845 32.5137V42.313C32.1845 44.8021 30.1595 46.828 27.6695 46.828Z" fill="#9A9A9A"/>
<path d="M31.5273 5.68687V11.8144C31.5273 11.9953 31.6745 12.1425 31.8554 12.1425C32.0363 12.1425 32.1835 11.9953 32.1835 11.8144V5.68687C32.1835 3.19687 30.1576 1.17188 27.6685 1.17188H13.5638C11.0738 1.17188 9.04883 3.19781 9.04883 5.68687V34.5225C9.04883 34.7034 9.19602 34.8506 9.37695 34.8506C9.55789 34.8506 9.70508 34.7034 9.70508 34.5225V5.68687C9.70508 3.55875 11.4366 1.82812 13.5638 1.82812H27.6685C29.7966 1.82812 31.5273 3.55969 31.5273 5.68687Z" fill="#9A9A9A"/>
<path d="M21.7885 18.8392C21.7397 18.8392 21.69 18.8279 21.6432 18.8054L19.455 17.7207C19.3786 17.6811 19.3209 17.6132 19.2941 17.5314C19.2673 17.4496 19.2738 17.3606 19.312 17.2836C19.3502 17.2065 19.4172 17.1475 19.4985 17.1193C19.5798 17.0912 19.6689 17.096 19.7466 17.1329L21.9338 18.2167C22.0117 18.2553 22.0711 18.3234 22.0989 18.4058C22.1267 18.4883 22.1206 18.5784 22.0819 18.6563C22.0549 18.7112 22.0131 18.7573 21.9613 18.7896C21.9094 18.8219 21.8496 18.8391 21.7885 18.8392ZM19.7325 27.3442C19.6116 27.3442 19.4944 27.2767 19.4372 27.1604C19.399 27.0823 19.3933 26.9923 19.4215 26.91C19.4496 26.8277 19.5092 26.76 19.5872 26.7217L21.78 25.6473C21.8581 25.6091 21.9482 25.6034 22.0304 25.6315C22.1127 25.6596 22.1804 25.7193 22.2188 25.7973C22.257 25.8754 22.2627 25.9654 22.2346 26.0477C22.2064 26.1299 22.1468 26.1977 22.0688 26.236L19.8769 27.3104C19.83 27.3338 19.7803 27.3442 19.7325 27.3442ZM42.1857 17.302C42.0722 17.302 41.9616 17.2429 41.9007 17.137C41.8791 17.0996 41.8652 17.0584 41.8597 17.0156C41.8541 16.9729 41.857 16.9295 41.8682 16.8878C41.8795 16.8462 41.8988 16.8072 41.9251 16.7731C41.9514 16.7389 41.9842 16.7103 42.0216 16.6888L44.1375 15.472C44.2129 15.4294 44.3021 15.4183 44.3857 15.4412C44.4692 15.4641 44.5403 15.5191 44.5834 15.5942C44.6266 15.6693 44.6383 15.7584 44.6161 15.8421C44.5939 15.9258 44.5395 15.9973 44.4647 16.041L42.3488 17.2579C42.2982 17.2879 42.241 17.302 42.1857 17.302ZM35.9316 13.2867C35.8848 13.2868 35.8386 13.2769 35.796 13.2576C35.7533 13.2383 35.7153 13.2102 35.6845 13.175C35.6537 13.1398 35.6308 13.0985 35.6173 13.0537C35.6038 13.0089 35.6 12.9618 35.6063 12.9154L35.9307 10.4957C35.955 10.3157 36.12 10.1892 36.2991 10.2145C36.4791 10.2388 36.6047 10.4038 36.5803 10.5829L36.256 13.0026C36.2453 13.0811 36.2066 13.1532 36.147 13.2054C36.0874 13.2576 36.0109 13.2865 35.9316 13.2867Z" fill="#0166FF"/>
<path d="M31.6561 21.2164C31.6561 21.2164 30.9023 21.2216 30.5461 21.2071C30.1988 21.1929 29.8646 21.1071 29.5437 20.9732C29.2264 20.8408 28.9369 20.6639 28.6941 20.431C28.5021 20.2469 28.339 20.0337 28.1722 19.8264C27.9988 19.6109 27.8374 19.386 27.6675 19.1676C27.58 19.0549 27.4206 18.9498 27.2052 19.0266C27.031 19.0887 26.91 19.2494 26.91 19.4198C26.91 20.091 26.8943 20.7625 26.915 21.433C26.9282 21.8603 27.0382 22.277 27.1899 22.6805C27.4023 23.2458 27.7043 23.7577 28.1108 24.2174C28.5692 24.7358 29.1164 25.1369 29.7486 25.4305C30.1773 25.6295 30.6278 25.7847 31.1026 25.8271C31.6256 25.874 32.1528 25.8806 32.6779 25.9009C32.8507 25.9078 32.9057 25.9544 32.906 26.121C32.9067 26.3834 32.9082 26.6459 32.9071 26.908C32.906 27.3502 33.3351 27.7993 33.8338 27.8003C34.2397 27.8014 34.5334 27.6506 34.7762 27.3519C34.9097 27.1874 35.071 27.0443 35.2206 26.8922C35.7089 26.3952 36.1973 25.8978 36.686 25.4011C37.0251 25.0566 37.3688 24.7158 37.7023 24.3661C37.869 24.1912 38.0474 24.0181 38.0871 23.7653C38.1363 23.451 38.0903 23.1617 37.8529 22.9199C37.4013 22.4601 36.9512 21.9993 36.5011 21.5382C36.249 21.2799 35.9981 21.0205 35.7471 20.7608C35.403 20.4041 35.0593 20.0475 34.7162 19.6898C34.4849 19.4484 34.21 19.2953 33.8598 19.3001C33.4336 19.306 33.0492 19.6005 32.9378 20.004C32.9046 20.1244 32.9099 20.2562 32.9071 20.3831C32.9024 20.5938 32.9071 20.8046 32.9053 21.0153C32.9042 21.1588 32.845 21.216 32.699 21.2164C32.3377 21.2171 31.6561 21.2164 31.6561 21.2164Z" stroke="#0166FF" stroke-width="0.7"/>
</svg>

<svg xmlns="http://www.w3.org/2000/svg" width="48" height="48" fill="none"><path fill="#E1EAF8" d="M24.061 4.832h-6.89c-.564 0-1.065-.361-1.244-.897L15.115 1.5h11.004l-.812 2.435a1.31 1.31 0 0 1-1.246.897m6.154 36.03v1.45a2.546 2.546 0 0 1-2.546 2.546H16.413c-.905 0-1.64.735-1.64 1.641h12.896a4.187 4.187 0 0 0 4.187-4.187v-.8z"/><path fill="#9A9A9A" d="M27.67 46.828H13.564a4.52 4.52 0 0 1-4.515-4.515v-5.239a.328.328 0 0 1 .656 0v5.239a3.863 3.863 0 0 0 3.859 3.859H27.67a3.863 3.863 0 0 0 3.858-3.859v-9.8a.329.329 0 0 1 .657 0v9.8a4.52 4.52 0 0 1-4.516 4.515M31.527 5.687v6.127a.328.328 0 0 0 .657 0V5.687a4.52 4.52 0 0 0-4.515-4.515H13.564a4.52 4.52 0 0 0-4.515 4.515v28.836a.328.328 0 0 0 .656 0V5.687a3.863 3.863 0 0 1 3.859-3.859h14.105a3.863 3.863 0 0 1 3.858 3.859"/><path fill="#0166FF" d="M21.789 18.84a.34.34 0 0 1-.146-.035l-2.188-1.084a.328.328 0 0 1 .292-.588l2.187 1.084a.328.328 0 0 1-.146.622m-2.056 8.504a.33.33 0 0 1-.311-.434.33.33 0 0 1 .165-.188l2.193-1.075a.328.328 0 0 1 .289.589l-2.192 1.074a.3.3 0 0 1-.144.034m22.453-10.042a.328.328 0 0 1-.164-.613l2.116-1.217a.328.328 0 0 1 .327.569l-2.116 1.217a.3.3 0 0 1-.163.044m-6.254-4.015a.327.327 0 0 1-.326-.372l.325-2.42a.327.327 0 1 1 .65.087l-.325 2.42a.33.33 0 0 1-.324.285"/><path stroke="#0166FF" stroke-width=".7" d="M31.656 21.216s-.754.006-1.11-.009a2.9 2.9 0 0 1-1.002-.234 2.7 2.7 0 0 1-.85-.542c-.192-.184-.355-.397-.522-.605-.173-.215-.335-.44-.505-.658-.087-.113-.246-.218-.462-.141a.43.43 0 0 0-.295.393c0 .671-.016 1.342.005 2.013.013.427.123.844.275 1.247a4.9 4.9 0 0 0 2.559 2.75c.428.2.879.355 1.354.397.523.047 1.05.054 1.575.074.173.007.228.053.228.22q.001.393.001.787c-.001.442.428.891.927.892.406.001.7-.15.942-.448.134-.165.295-.308.445-.46l1.465-1.49c.34-.345.683-.686 1.016-1.036.167-.175.345-.348.385-.6.05-.315.003-.604-.234-.846a629 629 0 0 1-2.106-2.16q-.517-.534-1.03-1.07c-.232-.242-.507-.395-.857-.39a.98.98 0 0 0-.922.704c-.033.12-.028.252-.03.38-.006.21 0 .42-.003.631 0 .144-.06.201-.206.201z"/></svg>
